X:14
T:Blattischäfeler-Juiz. 1989  Bb  ABCD
T:Sepp Herger  (* 16.1.1962)
T:Dirigenten-Notiz  Edi Gasser
C:Unterwalden (CH)
%%partsbox
P:ABCD
M:3/4
R:Naturjodel
L:1/4
K:Bb
[P:A] B,2C | D3 | D/F/dB | F3 | D3 | Ffd | c2A | F3 | Edc | B2d | 
F2E | D2E | F3 | FdB | F3 | D3 | Ffd | c2F | f>e d/c/ | B3 ||  
L:1/8
M:2/4
[P:B]   d>c Bd | c>AF2 | f>e dc | B2FB/c/ | d>c Bd | c>AF2 | f>e dc | B4 || 
M:2/4
[P:C] D>E | F2dB | F2dB | e3f | e2dc | d3c | B2d2 | c2A2 | 
FG FE | F2dB | F2dB | e3f | e2dc | d2Fd | d3c | (B4 | B2)z2 || 
M:2/4
[P:D] dc Bd | cAF2 | f>e dc | B2FB/c/ | dc Bd | cAF2 | f>e dc | B4 | 
dd/c/ Bd | cc/A/F2 | f>e dc | B2FB/c/ | dd/c/ Bd | cc/A/F2 | f>e dc | B4 |] 
W:
%W:Reihenfolge: A-B-A-C
W:gewidmet den beiden Dallenwilerschäfeler
W:"s'Giger's Sepp und d'Schlüssel Walti"
W:
W:notiert Edi Gasser, nach Angaben von Sepp Herger
W:UJV-Naturjodelsammlung: Code-Nr: 22-08
W:http://www.naturjodler.ch/code 22.htm  (with AUDIO)
%May 21, 2018

